static/img/kroki/83c0b466852206f70efa7afba33a1e33.svg

<?xml version="1.0" encoding="us-ascii" standalone="no"?><svg xmlns="http://www.w3.org/2000/svg" xmlns:xlink="http://www.w3.org/1999/xlink" contentStyleType="text/css" height="679px" preserveAspectRatio="none" style="width:789px;height:679px;" version="1.1" viewBox="0 0 789 679" width="789px" zoomAndPan="magnify"><defs/><g><!--class aws_ec2_keypair--><g id="elem_aws_ec2_keypair"><rect codeLine="23" fill="#3D176E" height="39.7891" id="aws_ec2_keypair" rx="2.5" ry="2.5" style="stroke:#000D19;stroke-width:0.5;" width="184" x="7" y="633.84"/><ellipse cx="22" cy="653.7345" fill="#ADD1B2" rx="11" ry="11" style="stroke:#181818;stroke-width:1.0;"/><path d="M24.9688,659.3752 Q24.3906,659.672 23.75,659.8127 Q23.1094,659.9689 22.4063,659.9689 Q19.9063,659.9689 18.5781,658.3283 Q17.2656,656.672 17.2656,653.547 Q17.2656,650.422 18.5781,648.7658 Q19.9063,647.1095 22.4063,647.1095 Q23.1094,647.1095 23.75,647.2658 Q24.4063,647.422 24.9688,647.7189 L24.9688,650.4377 Q24.3438,649.8595 23.75,649.5939 Q23.1563,649.3127 22.5313,649.3127 Q21.1875,649.3127 20.5,650.3908 Q19.8125,651.4533 19.8125,653.547 Q19.8125,655.6408 20.5,656.7189 Q21.1875,657.7814 22.5313,657.7814 Q23.1563,657.7814 23.75,657.5158 Q24.3438,657.2345 24.9688,656.6564 L24.9688,659.3752 Z " fill="#000000"/><text fill="#D9B8FF" font-family="Helvetica" font-size="17" lengthAdjust="spacing" textLength="142" x="41" y="659.6198">aws_ec2_keypair</text></g><!--class azure_compute_ssh_public_key--><g id="elem_azure_compute_ssh_public_key"><rect codeLine="26" fill="#3D176E" height="39.7891" id="azure_compute_ssh_public_key" rx="2.5" ry="2.5" style="stroke:#000D19;stroke-width:0.5;" width="303" x="226.5" y="633.84"/><ellipse cx="241.5" cy="653.7345" fill="#ADD1B2" rx="11" ry="11" style="stroke:#181818;stroke-width:1.0;"/><path d="M244.4688,659.3752 Q243.8906,659.672 243.25,659.8127 Q242.6094,659.9689 241.9063,659.9689 Q239.4063,659.9689 238.0781,658.3283 Q236.7656,656.672 236.7656,653.547 Q236.7656,650.422 238.0781,648.7658 Q239.4063,647.1095 241.9063,647.1095 Q242.6094,647.1095 243.25,647.2658 Q243.9063,647.422 244.4688,647.7189 L244.4688,650.4377 Q243.8438,649.8595 243.25,649.5939 Q242.6563,649.3127 242.0313,649.3127 Q240.6875,649.3127 240,650.3908 Q239.3125,651.4533 239.3125,653.547 Q239.3125,655.6408 240,656.7189 Q240.6875,657.7814 242.0313,657.7814 Q242.6563,657.7814 243.25,657.5158 Q243.8438,657.2345 244.4688,656.6564 L244.4688,659.3752 Z " fill="#000000"/><text fill="#D9B8FF" font-family="Helvetica" font-size="17" lengthAdjust="spacing" textLength="261" x="260.5" y="659.6198">azure_compute_ssh_public_key</text></g><!--class digitalocean_ssh_key--><g id="elem_digitalocean_ssh_key"><rect codeLine="29" fill="#3D176E" height="39.7891" id="digitalocean_ssh_key" rx="2.5" ry="2.5" style="stroke:#000D19;stroke-width:0.5;" width="218" x="564" y="633.84"/><ellipse cx="579" cy="653.7345" fill="#ADD1B2" rx="11" ry="11" style="stroke:#181818;stroke-width:1.0;"/><path d="M581.9688,659.3752 Q581.3906,659.672 580.75,659.8127 Q580.1094,659.9689 579.4063,659.9689 Q576.9063,659.9689 575.5781,658.3283 Q574.2656,656.672 574.2656,653.547 Q574.2656,650.422 575.5781,648.7658 Q576.9063,647.1095 579.4063,647.1095 Q580.1094,647.1095 580.75,647.2658 Q581.4063,647.422 581.9688,647.7189 L581.9688,650.4377 Q581.3438,649.8595 580.75,649.5939 Q580.1563,649.3127 579.5313,649.3127 Q578.1875,649.3127 577.5,650.3908 Q576.8125,651.4533 576.8125,653.547 Q576.8125,655.6408 577.5,656.7189 Q578.1875,657.7814 579.5313,657.7814 Q580.1563,657.7814 580.75,657.5158 Q581.3438,657.2345 581.9688,656.6564 L581.9688,659.3752 Z " fill="#000000"/><text fill="#D9B8FF" font-family="Helvetica" font-size="17" lengthAdjust="spacing" textLength="176" x="598" y="659.6198">digitalocean_ssh_key</text></g><!--class keypair--><g id="elem_keypair"><rect codeLine="32" fill="#3D176E" height="74.0859" id="keypair" rx="2.5" ry="2.5" style="stroke:#000D19;stroke-width:0.5;" width="154" x="301" y="438.76"/><ellipse cx="338.5" cy="458.6545" fill="#ADD1B2" rx="11" ry="11" style="stroke:#181818;stroke-width:1.0;"/><path d="M341.4688,464.2952 Q340.8906,464.592 340.25,464.7327 Q339.6094,464.8889 338.9063,464.8889 Q336.4063,464.8889 335.0781,463.2483 Q333.7656,461.592 333.7656,458.467 Q333.7656,455.342 335.0781,453.6858 Q336.4063,452.0295 338.9063,452.0295 Q339.6094,452.0295 340.25,452.1858 Q340.9063,452.342 341.4688,452.6389 L341.4688,455.3577 Q340.8438,454.7795 340.25,454.5139 Q339.6563,454.2327 339.0313,454.2327 Q337.6875,454.2327 337,455.3108 Q336.3125,456.3733 336.3125,458.467 Q336.3125,460.5608 337,461.6389 Q337.6875,462.7014 339.0313,462.7014 Q339.6563,462.7014 340.25,462.4358 Q340.8438,462.1545 341.4688,461.5764 L341.4688,464.2952 Z " fill="#000000"/><text fill="#D9B8FF" font-family="Helvetica" font-size="17" lengthAdjust="spacing" textLength="62" x="362.5" y="464.5398">keypair</text><line style="stroke:#000D19;stroke-width:0.5;" x1="302" x2="454" y1="478.5491" y2="478.5491"/><text fill="#D9B8FF" font-family="sans-serif" font-size="14" font-weight="bold" lengthAdjust="spacing" textLength="84" x="312" y="500.5442">fingerprint</text><text fill="#D9B8FF" font-family="sans-serif" font-size="14" lengthAdjust="spacing" textLength="48" x="396" y="500.5442">: string</text></g><!--class resource--><g id="elem_resource"><rect codeLine="35" fill="#3D176E" height="310.7578" id="resource" rx="2.5" ry="2.5" style="stroke:#000D19;stroke-width:0.5;" width="227" x="264.5" y="7"/><ellipse cx="333.25" cy="26.8945" fill="#ADD1B2" rx="11" ry="11" style="stroke:#181818;stroke-width:1.0;"/><path d="M336.2188,32.5352 Q335.6406,32.832 335,32.9727 Q334.3594,33.1289 333.6563,33.1289 Q331.1563,33.1289 329.8281,31.4883 Q328.5156,29.832 328.5156,26.707 Q328.5156,23.582 329.8281,21.9258 Q331.1563,20.2695 333.6563,20.2695 Q334.3594,20.2695 335,20.4258 Q335.6563,20.582 336.2188,20.8789 L336.2188,23.5977 Q335.5938,23.0195 335,22.7539 Q334.4063,22.4727 333.7813,22.4727 Q332.4375,22.4727 331.75,23.5508 Q331.0625,24.6133 331.0625,26.707 Q331.0625,28.8008 331.75,29.8789 Q332.4375,30.9414 333.7813,30.9414 Q334.4063,30.9414 335,30.6758 Q335.5938,30.3945 336.2188,29.8164 L336.2188,32.5352 Z " fill="#000000"/><text fill="#D9B8FF" font-family="Helvetica" font-size="17" lengthAdjust="spacing" textLength="71" x="358.75" y="32.7798">resource</text><line style="stroke:#000D19;stroke-width:0.5;" x1="265.5" x2="490.5" y1="46.7891" y2="46.7891"/><text fill="#D9B8FF" font-family="sans-serif" font-size="14" font-weight="bold" lengthAdjust="spacing" textLength="29" x="275.5" y="68.7842">age</text><text fill="#D9B8FF" font-family="sans-serif" font-size="14" lengthAdjust="spacing" textLength="66" x="304.5" y="68.7842">: duration</text><text fill="#D9B8FF" font-family="sans-serif" font-size="14" font-weight="bold" lengthAdjust="spacing" textLength="43" x="275.5" y="95.0811">atime</text><text fill="#D9B8FF" font-family="sans-serif" font-size="14" lengthAdjust="spacing" textLength="70" x="318.5" y="95.0811">: datetime</text><text fill="#D9B8FF" font-family="sans-serif" font-size="14" font-weight="bold" lengthAdjust="spacing" textLength="43" x="275.5" y="121.3779">ctime</text><text fill="#D9B8FF" font-family="sans-serif" font-size="14" lengthAdjust="spacing" textLength="70" x="318.5" y="121.3779">: datetime</text><text fill="#D9B8FF" font-family="sans-serif" font-size="14" font-weight="bold" lengthAdjust="spacing" textLength="14" x="275.5" y="147.6748">id</text><text fill="#D9B8FF" font-family="sans-serif" font-size="14" lengthAdjust="spacing" textLength="48" x="289.5" y="147.6748">: string</text><text fill="#D9B8FF" font-family="sans-serif" font-size="14" font-weight="bold" lengthAdjust="spacing" textLength="33" x="275.5" y="173.9717">kind</text><text fill="#D9B8FF" font-family="sans-serif" font-size="14" lengthAdjust="spacing" textLength="48" x="308.5" y="173.9717">: string</text><text fill="#D9B8FF" font-family="sans-serif" font-size="14" font-weight="bold" lengthAdjust="spacing" textLength="90" x="275.5" y="200.2686">last_access</text><text fill="#D9B8FF" font-family="sans-serif" font-size="14" lengthAdjust="spacing" textLength="66" x="365.5" y="200.2686">: duration</text><text fill="#D9B8FF" font-family="sans-serif" font-size="14" font-weight="bold" lengthAdjust="spacing" textLength="90" x="275.5" y="226.5654">last_update</text><text fill="#D9B8FF" font-family="sans-serif" font-size="14" lengthAdjust="spacing" textLength="66" x="365.5" y="226.5654">: duration</text><text fill="#D9B8FF" font-family="sans-serif" font-size="14" font-weight="bold" lengthAdjust="spacing" textLength="48" x="275.5" y="252.8623">mtime</text><text fill="#D9B8FF" font-family="sans-serif" font-size="14" lengthAdjust="spacing" textLength="70" x="323.5" y="252.8623">: datetime</text><text fill="#D9B8FF" font-family="sans-serif" font-size="14" font-weight="bold" lengthAdjust="spacing" textLength="43" x="275.5" y="279.1592">name</text><text fill="#D9B8FF" font-family="sans-serif" font-size="14" lengthAdjust="spacing" textLength="48" x="318.5" y="279.1592">: string</text><text fill="#D9B8FF" font-family="sans-serif" font-size="14" font-weight="bold" lengthAdjust="spacing" textLength="34" x="275.5" y="305.4561">tags</text><text fill="#D9B8FF" font-family="sans-serif" font-size="14" lengthAdjust="spacing" textLength="171" x="309.5" y="305.4561">: dictionary[string, string]</text></g><!--reverse link keypair to aws_ec2_keypair--><g id="link_keypair_aws_ec2_keypair"><path codeLine="47" d="M304.9648,522.8518 C247.0248,559.3918 175.29,604.63 129.57,633.46 " fill="none" id="keypair-backto-aws_ec2_keypair" style="stroke:#FFAF37;stroke-width:2.0;"/><polygon fill="none" points="320.19,513.25,301.7642,517.7767,308.1654,527.9268,320.19,513.25" style="stroke:#FFAF37;stroke-width:2.0;"/></g><!--reverse link keypair to azure_compute_ssh_public_key--><g id="link_keypair_azure_compute_ssh_public_key"><path codeLine="48" d="M378,531.25 C378,567.89 378,604.93 378,633.69 " fill="none" id="keypair-backto-azure_compute_ssh_public_key" style="stroke:#FFAF37;stroke-width:2.0;"/><polygon fill="none" points="378,513.25,372,531.25,384,531.25,378,513.25" style="stroke:#FFAF37;stroke-width:2.0;"/></g><!--reverse link keypair to digitalocean_ssh_key--><g id="link_keypair_digitalocean_ssh_key"><path codeLine="49" d="M454.5795,522.4697 C515.8495,559.0097 592.34,604.63 640.67,633.46 " fill="none" id="keypair-backto-digitalocean_ssh_key" style="stroke:#FFAF37;stroke-width:2.0;"/><polygon fill="none" points="439.12,513.25,451.5063,527.6229,457.6528,517.3165,439.12,513.25" style="stroke:#FFAF37;stroke-width:2.0;"/></g><!--reverse link resource to keypair--><g id="link_resource_keypair"><path codeLine="50" d="M378,336.17 C378,381.21 378,408.34 378,438.51 " fill="none" id="resource-backto-keypair" style="stroke:#FFAF37;stroke-width:2.0;"/><polygon fill="none" points="378,318.17,372,336.17,384,336.17,378,318.17" style="stroke:#FFAF37;stroke-width:2.0;"/></g><!--SRC=[XPD1J-Cm48Nl-HMMk4LKQa5iAU82bH1Sq6hXjbf5KtkIMatiQ3oXAhlxtx4RMenJoirwx_FCct6or0e5DYrlH8FD0ibbRgLD2mIDk26owxcjBOcJieJoV9gQTzRmjy0ZD2ZkiNv1rX9IudcfvSgWS-8iicv1hYgodL5zUIOmpbjeEABcDJXtmqnwqJ56OTHiSLcMAPaMFJbNa-aF762M5D8xCXwFrMIM8j-sEZhtddZIhoWcyT8UBUCWvg35bZgQCX1HoC6WE__BZ3z1AMqgSH5fl_fCP90-wKzBK7OTw19g5xTnZ8IMDotE1rFXx5ALquFmmrTm9iFg1AnTWVAiME6c1KtYRvRztrcl7M4XRTFwBw9mRbcqtQBMCh0nftIb6Meh4SmMI_oFqdbU-j6GMjA6y_pAv_IdQayIEjkHn2qA5GP4TGIihGaAwwRNW36SlIOFQ5f5jVFSR-Mpu7jn0LBwFoNfi7MwDjHAdEP07mEzj2_CKFKLjGpNW3Q_U-_qdVdZHzsju_hVQ3HAzv-wHvuWGG-zGhPVQC_ichm1]--></g></svg>

<svg xmlns="http://www.w3.org/2000/svg" width="789" height="679" viewBox="0 0 789 679"><rect width="184" height="39.789" x="7" y="633.84" fill="#3D176E" rx="2.5" ry="2.5" style="stroke:#000d19;stroke-width:.5"/><circle cx="22" cy="653.735" r="11" fill="#ADD1B2" style="stroke:#181818;stroke-width:1"/><path d="M24.969 659.375q-.578.297-1.219.438-.64.156-1.344.156-2.5 0-3.828-1.64-1.312-1.657-1.312-4.782t1.312-4.781q1.328-1.656 3.828-1.656.703 0 1.344.156.656.156 1.219.453v2.719q-.625-.578-1.219-.844-.594-.281-1.219-.281-1.343 0-2.031 1.078-.687 1.062-.687 3.156t.687 3.172q.688 1.062 2.031 1.062.625 0 1.219-.265.594-.281 1.219-.86z"/><text x="41" y="659.62" fill="#D9B8FF" font-family="Helvetica" font-size="17" textLength="142">aws_ec2_keypair</text><rect width="303" height="39.789" x="226.5" y="633.84" fill="#3D176E" rx="2.5" ry="2.5" style="stroke:#000d19;stroke-width:.5"/><circle cx="241.5" cy="653.735" r="11" fill="#ADD1B2" style="stroke:#181818;stroke-width:1"/><path d="M244.469 659.375q-.578.297-1.219.438-.64.156-1.344.156-2.5 0-3.828-1.64-1.312-1.657-1.312-4.782t1.312-4.781q1.328-1.656 3.828-1.656.703 0 1.344.156.656.156 1.219.453v2.719q-.625-.578-1.219-.844-.594-.281-1.219-.281-1.344 0-2.031 1.078-.687 1.062-.687 3.156t.687 3.172q.688 1.062 2.031 1.062.625 0 1.219-.265.594-.281 1.219-.86z"/><text x="260.5" y="659.62" fill="#D9B8FF" font-family="Helvetica" font-size="17" textLength="261">azure_compute_ssh_public_key</text><rect width="218" height="39.789" x="564" y="633.84" fill="#3D176E" rx="2.5" ry="2.5" style="stroke:#000d19;stroke-width:.5"/><circle cx="579" cy="653.735" r="11" fill="#ADD1B2" style="stroke:#181818;stroke-width:1"/><path d="M581.969 659.375q-.578.297-1.219.438-.64.156-1.344.156-2.5 0-3.828-1.64-1.312-1.657-1.312-4.782t1.312-4.781q1.328-1.656 3.828-1.656.703 0 1.344.156.656.156 1.219.453v2.719q-.625-.578-1.219-.844-.594-.281-1.219-.281-1.343 0-2.031 1.078-.687 1.062-.687 3.156t.687 3.172q.688 1.062 2.031 1.062.625 0 1.219-.265.594-.281 1.219-.86z"/><text x="598" y="659.62" fill="#D9B8FF" font-family="Helvetica" font-size="17" textLength="176">digitalocean_ssh_key</text><rect width="154" height="74.086" x="301" y="438.76" fill="#3D176E" rx="2.5" ry="2.5" style="stroke:#000d19;stroke-width:.5"/><circle cx="338.5" cy="458.654" r="11" fill="#ADD1B2" style="stroke:#181818;stroke-width:1"/><path d="M341.469 464.295q-.578.297-1.219.438-.64.156-1.344.156-2.5 0-3.828-1.64-1.312-1.657-1.312-4.782t1.312-4.781q1.328-1.656 3.828-1.656.703 0 1.344.156.656.156 1.219.453v2.719q-.625-.579-1.219-.844-.594-.281-1.219-.281-1.344 0-2.031 1.078-.687 1.062-.687 3.156t.687 3.172q.688 1.062 2.031 1.062.625 0 1.219-.265.594-.281 1.219-.86z"/><text x="362.5" y="464.54" fill="#D9B8FF" font-family="Helvetica" font-size="17" textLength="62">keypair</text><path d="M302 478.549h152" style="stroke:#000d19;stroke-width:.5"/><text x="312" y="500.544" fill="#D9B8FF" font-family="sans-serif" font-size="14" font-weight="bold" textLength="84">fingerprint</text><text x="396" y="500.544" fill="#D9B8FF" font-family="sans-serif" font-size="14" textLength="48">: string</text><rect width="227" height="310.758" x="264.5" y="7" fill="#3D176E" rx="2.5" ry="2.5" style="stroke:#000d19;stroke-width:.5"/><circle cx="333.25" cy="26.895" r="11" fill="#ADD1B2" style="stroke:#181818;stroke-width:1"/><path d="M336.219 32.535q-.578.297-1.219.438-.64.156-1.344.156-2.5 0-3.828-1.64-1.312-1.657-1.312-4.782t1.312-4.781q1.328-1.656 3.828-1.656.703 0 1.344.156.656.156 1.219.453v2.719q-.625-.578-1.219-.844-.594-.281-1.219-.281-1.344 0-2.031 1.078-.687 1.062-.687 3.156t.687 3.172q.688 1.062 2.031 1.062.625 0 1.219-.265.594-.281 1.219-.86z"/><text x="358.75" y="32.78" fill="#D9B8FF" font-family="Helvetica" font-size="17" textLength="71">resource</text><path d="M265.5 46.789h225" style="stroke:#000d19;stroke-width:.5"/><text x="275.5" y="68.784" fill="#D9B8FF" font-family="sans-serif" font-size="14" font-weight="bold" textLength="29">age</text><text x="304.5" y="68.784" fill="#D9B8FF" font-family="sans-serif" font-size="14" textLength="66">: duration</text><text x="275.5" y="95.081" fill="#D9B8FF" font-family="sans-serif" font-size="14" font-weight="bold" textLength="43">atime</text><text x="318.5" y="95.081" fill="#D9B8FF" font-family="sans-serif" font-size="14" textLength="70">: datetime</text><text x="275.5" y="121.378" fill="#D9B8FF" font-family="sans-serif" font-size="14" font-weight="bold" textLength="43">ctime</text><text x="318.5" y="121.378" fill="#D9B8FF" font-family="sans-serif" font-size="14" textLength="70">: datetime</text><text x="275.5" y="147.675" fill="#D9B8FF" font-family="sans-serif" font-size="14" font-weight="bold" textLength="14">id</text><text x="289.5" y="147.675" fill="#D9B8FF" font-family="sans-serif" font-size="14" textLength="48">: string</text><text x="275.5" y="173.972" fill="#D9B8FF" font-family="sans-serif" font-size="14" font-weight="bold" textLength="33">kind</text><text x="308.5" y="173.972" fill="#D9B8FF" font-family="sans-serif" font-size="14" textLength="48">: string</text><text x="275.5" y="200.269" fill="#D9B8FF" font-family="sans-serif" font-size="14" font-weight="bold" textLength="90">last_access</text><text x="365.5" y="200.269" fill="#D9B8FF" font-family="sans-serif" font-size="14" textLength="66">: duration</text><text x="275.5" y="226.565" fill="#D9B8FF" font-family="sans-serif" font-size="14" font-weight="bold" textLength="90">last_update</text><text x="365.5" y="226.565" fill="#D9B8FF" font-family="sans-serif" font-size="14" textLength="66">: duration</text><text x="275.5" y="252.862" fill="#D9B8FF" font-family="sans-serif" font-size="14" font-weight="bold" textLength="48">mtime</text><text x="323.5" y="252.862" fill="#D9B8FF" font-family="sans-serif" font-size="14" textLength="70">: datetime</text><text x="275.5" y="279.159" fill="#D9B8FF" font-family="sans-serif" font-size="14" font-weight="bold" textLength="43">name</text><text x="318.5" y="279.159" fill="#D9B8FF" font-family="sans-serif" font-size="14" textLength="48">: string</text><text x="275.5" y="305.456" fill="#D9B8FF" font-family="sans-serif" font-size="14" font-weight="bold" textLength="34">tags</text><text x="309.5" y="305.456" fill="#D9B8FF" font-family="sans-serif" font-size="14" textLength="171">: dictionary[string, string]</text><g fill="none"><path d="M304.965 522.852c-57.94 36.54-129.675 81.778-175.395 110.608" style="stroke:#ffaf37;stroke-width:2"/><path d="m320.19 513.25-18.426 4.527 6.401 10.15z" style="stroke:#ffaf37;stroke-width:2"/></g><path fill="none" d="M378 531.25v102.44m0-120.44-6 18h12zm76.58 9.22c61.27 36.54 137.76 82.16 186.09 110.99M439.12 513.25l12.386 14.373 6.147-10.307zM378 336.17v102.34m0-120.34-6 18h12z" style="stroke:#ffaf37;stroke-width:2"/></svg>
